tools/download-figma-icons/icons/outlined-large/video-consultation.svg

<svg width="65" height="64" viewBox="0 0 65 64" fill="none" xmlns="http://www.w3.org/2000/svg">
<path d="M37.56 24.5167C38.76 23.1869 39.5 21.4272 39.5 19.4976C39.5 15.3584 36.14 11.999 32 11.999C27.86 11.999 24.5 15.3584 24.5 19.4976C24.5 21.4272 25.24 23.1769 26.44 24.5167C22.7 25.7964 20 29.3358 20 33.495C20 34.3248 20.67 34.9947 21.5 34.9947C22.33 34.9947 23 34.3248 23 33.495C23 29.9156 25.92 26.9962 29.5 26.9962H34.5C38.08 26.9962 41 29.9156 41 33.495C41 34.3248 41.67 34.9947 42.5 34.9947C43.33 34.9947 44 34.3248 44 33.495C44 29.3258 41.3 25.7864 37.56 24.5167ZM32 14.9985C34.48 14.9985 36.5 17.0181 36.5 19.4976C36.5 21.9771 34.48 23.9968 32 23.9968C29.52 23.9968 27.5 21.9771 27.5 19.4976C27.5 17.0181 29.52 14.9985 32 14.9985Z" fill="black"/>
<path d="M63.97 51.1815C63.97 51.1815 63.97 51.1815 63.97 51.1715C63.95 51.0615 63.91 50.9615 63.86 50.8615C63.86 50.8515 63.86 50.8415 63.85 50.8215L58.01 39.1437V9.49934C58.01 7.5697 56.44 6 54.51 6H9.50001C7.57001 6 6.00001 7.5697 6.00001 9.49934V39.1437L0.16001 50.8215C0.16001 50.8215 0.16001 50.8415 0.15001 50.8615C0.10001 50.9615 0.0700098 51.0615 0.0400098 51.1715C0.0400098 51.1715 0.0400098 51.1815 0.0400098 51.1915C0.0200098 51.2915 0.0100098 51.3914 0.0100098 51.5014V55.5007C0.0100098 57.4303 1.58001 59 3.51001 59H60.51C62.44 59 64.01 57.4303 64.01 55.5007V51.5014C64.01 51.3914 64 51.2915 63.98 51.1915L63.97 51.1815ZM9.00001 9.49934C9.00001 9.21939 9.22001 8.99943 9.50001 8.99943H54.5C54.78 8.99943 55 9.21939 55 9.49934V37.994H9.00001V9.49934ZM8.43001 40.9934H55.58L60.08 49.9917H41.59L39.93 45.0226C39.73 44.4128 39.15 43.9928 38.51 43.9928H25.51C24.86 43.9928 24.29 44.4028 24.09 45.0226L22.43 49.9917H3.93001L8.43001 40.9934ZM38.42 49.9917H25.58L26.58 46.9923H37.42L38.42 49.9917ZM61 55.4907C61 55.7706 60.78 55.9906 60.5 55.9906H3.50001C3.22001 55.9906 3.00001 55.7706 3.00001 55.4907V52.9911H61V55.4907Z" fill="black"/>
</svg>

<svg width="65" height="64" viewBox="0 0 65 64" fill="none" xmlns="http://www.w3.org/2000/svg"><path d="M37.56 24.517a7.475 7.475 0 0 0 1.94-5.02A7.501 7.501 0 0 0 32 12c-4.14 0-7.5 3.36-7.5 7.499 0 1.93.74 3.679 1.94 5.019-3.74 1.28-6.44 4.819-6.44 8.978 0 .83.67 1.5 1.5 1.5s1.5-.67 1.5-1.5c0-3.58 2.92-6.499 6.5-6.499h5c3.58 0 6.5 2.92 6.5 6.499 0 .83.67 1.5 1.5 1.5s1.5-.67 1.5-1.5c0-4.17-2.7-7.709-6.44-8.978ZM32 14.999c2.48 0 4.5 2.02 4.5 4.499 0 2.48-2.02 4.499-4.5 4.499s-4.5-2.02-4.5-4.5A4.506 4.506 0 0 1 32 15Z" fill="currentColor"/><path d="M63.97 51.181v-.01c-.02-.11-.06-.21-.11-.31 0-.01 0-.02-.01-.04l-5.84-11.677V9.499A3.504 3.504 0 0 0 54.51 6H9.5C7.57 6 6 7.57 6 9.5v29.644L.16 50.822s0 .02-.01.04c-.05.1-.08.2-.11.31v.02c-.02.1-.03.2-.03.31V55.5c0 1.93 1.57 3.5 3.5 3.5h57c1.93 0 3.5-1.57 3.5-3.5v-3.999c0-.11-.01-.21-.03-.31l-.01-.01ZM9 9.5c0-.28.22-.5.5-.5h45c.28 0 .5.22.5.5v28.495H9V9.499Zm-.57 31.494h47.15l4.5 8.999H41.59l-1.66-4.97c-.2-.61-.78-1.03-1.42-1.03h-13c-.65 0-1.22.41-1.42 1.03l-1.66 4.97H3.93l4.5-8.999Zm29.99 8.999H25.58l1-3h10.84l1 3ZM61 55.49c0 .28-.22.5-.5.5h-57c-.28 0-.5-.22-.5-.5v-2.5h58v2.5Z" fill="currentColor"/></svg>
